!!!OTL: "Spaete Reue" WEINE NICHT FEINSMAEGDELEIN
!!!ARE: Europa, Mitteleuropa, Deutschland, Mittelrhein
!!!SCT: Z1065
!!!YEM: Copyright 1995, estate of Helmut Schaffrath.
**kern
*ICvox
*Ivox
*M4/4
*k[b-]
*F:
=1
{4f
4a
4f
4a
=2
8g
8f
8g
8a
4f
4r}
=3
{4a
4cc
4a
4cc
=4
8b-
8a
8b-
8cc
4a
4r}
=5
{4g
4g
8a
8g
8f
8g
=6
4a
4a
8cc
8b-
4a}
=7
{4g
4g
8a
8g
8f
8g
=8
4a
4a
8cc
8b-
4a}
=9
{2cc
8dd
8cc
8b-
8a
=10
2b-
8cc
8b-}
{8a
8g
=11
4a
4a
8b-
8a
8b-
8cc
=12
2a
2r}
==
!!!AGN: Romanze, Ballade, Tod
!!!ONB: ESAC (Essen Associative Code) Database: ZUCCAL
!!!AMT: simple quadruple
!!!AIN: vox
!!!EED: Helmut Schaffrath
!!!EEV: 1.0
*-
